icons-dark/actions/22/edit-paste-in-place.svg

<svg xmlns="http://www.w3.org/2000/svg" viewBox="0 0 22 22">
  <defs id="defs3051">
    <style type="text/css" id="current-color-scheme">
      .ColorScheme-Text {
        color:#f2f2f2
      }
      </style>
  </defs>
 <path 
    style="fill:currentColor;fill-opacity:1;stroke:none" 
	d="m11 3c-2.76142 0-5 2.23858-5 5 0 2.76142 5 11 5 11 0 0 5-8.23858 5-11 0-2.76142-2.23858-5-5-5m0 1a4 4 0 0 1 4 4 4 4 0 0 1 -4 4 4 4 0 0 1 -4 -4 4 4 0 0 1 4 -4"
    class="ColorScheme-Text"
    />  
</svg>

<?xml version="1.0" encoding="UTF-8" standalone="no"?>
<!-- Created with Inkscape (http://www.inkscape.org/) -->

<svg
   xmlns:dc="http://purl.org/dc/elements/1.1/"
   xmlns:cc="http://creativecommons.org/ns#"
   xmlns:rdf="http://www.w3.org/1999/02/22-rdf-syntax-ns#"
   xmlns:svg="http://www.w3.org/2000/svg"
   xmlns="http://www.w3.org/2000/svg"
   xmlns:sodipodi="http://sodipodi.sourceforge.net/DTD/sodipodi-0.dtd"
   xmlns:inkscape="http://www.inkscape.org/namespaces/inkscape"
   width="22"
   height="22"
   id="svg3815"
   version="1.1"
   inkscape:version="0.91 r13725"
   sodipodi:docname="edit-paste-in-place.svg">
  <defs
     id="defs3817" />
  <sodipodi:namedview
     id="base"
     pagecolor="#ffffff"
     bordercolor="#666666"
     borderopacity="1.0"
     inkscape:pageopacity="0.0"
     inkscape:pageshadow="2"
     inkscape:zoom="32"
     inkscape:cx="10.970132"
     inkscape:cy="11.08027"
     inkscape:document-units="px"
     inkscape:current-layer="layer1"
     showgrid="true"
     fit-margin-top="0"
     fit-margin-left="0"
     fit-margin-right="0"
     fit-margin-bottom="0"
     inkscape:window-width="2560"
     inkscape:window-height="955"
     inkscape:window-x="0"
     inkscape:window-y="35"
     inkscape:window-maximized="1"
     inkscape:showpageshadow="false"
     borderlayer="false"
     showguides="true"
     inkscape:object-nodes="true"
     inkscape:snap-bbox="true"
     inkscape:snap-global="true">
    <sodipodi:guide
       position="2.0000044,19.999979"
       orientation="18,0"
       id="guide3338" />
    <sodipodi:guide
       position="2.0000044,1.9999785"
       orientation="0,18"
       id="guide3340" />
    <sodipodi:guide
       position="20.000004,1.9999785"
       orientation="-18,0"
       id="guide3342" />
    <sodipodi:guide
       position="20.000004,19.999979"
       orientation="0,-18"
       id="guide3344" />
    <sodipodi:guide
       position="3.0000044,18.999979"
       orientation="16,0"
       id="guide3346" />
    <sodipodi:guide
       position="3.0000044,2.9999785"
       orientation="0,16"
       id="guide3348" />
    <sodipodi:guide
       position="19.000004,2.9999785"
       orientation="-16,0"
       id="guide3350" />
    <sodipodi:guide
       position="17,19"
       orientation="0,-16"
       id="guide3352" />
    <inkscape:grid
       type="xygrid"
       id="grid3354" />
    <sodipodi:guide
       position="11,12"
       orientation="0,0"
       id="guide4216" />
    <sodipodi:guide
       position="6.0078125,19"
       orientation="0,-1.0019531"
       id="guide4174" />
  </sodipodi:namedview>
  <metadata
     id="metadata3820">
    <rdf:RDF>
      <cc:Work
         rdf:about="">
        <dc:format>image/svg+xml</dc:format>
        <dc:type
           rdf:resource="http://purl.org/dc/dcmitype/StillImage" />
        <dc:title />
      </cc:Work>
    </rdf:RDF>
  </metadata>
  <g
     inkscape:label="Capa 1"
     inkscape:groupmode="layer"
     id="layer1"
     transform="translate(-461.71429,-525.79075)">
    <path
       style="opacity:1;fill:#f2f2f2;fill-opacity:1;stroke:none"
       d="M 11 3 C 8.23858 3 6 5.23858 6 8 C 6 10.76142 11 19 11 19 C 11 19 16 10.76142 16 8 C 16 5.23858 13.76142 3 11 3 z M 11 4 A 4 4 0 0 1 15 8 A 4 4 0 0 1 11 12 A 4 4 0 0 1 7 8 A 4 4 0 0 1 11 4 z "
       transform="translate(461.71429,525.79075)"
       id="circle3359" />
  </g>
</svg>
